!!!COM: Paul Hindemith
!!!OTL: [T646_Hin-w42p8m39-48]
**kern	**dynam	**kern	**dynam	**kern	**dynam	**kern	**dynam	**kern	**dynam
*grp:A	*grp:A	*grp:A	*grp:A	*grp:B	*grp:B	*grp:B	*grp:B	*grp:B	*grp:B
*part5	*part5	*part4	*part4	*part3	*part3	*part2	*part2	*part1	*part1
*staff5	*	*staff4	*	*staff3	*	*staff2	*	*staff1	*
*I"	*	*I"Strings	*	*I"	*	*I"Trumpet in C	*	*I"Flute	*
*I'	*	*I'	*	*I'	*	*I'C Tpt.	*	*I'Fl.	*
*ICstr	*	*ICstr	*	*ICstr	*	*ICbras	*	*ICww	*
*	*	*	*	*	*	*Itromp	*	*	*
*clefF4	*	*clefG2	*	*clefG2	*	*clefG2	*	*clefG2	*
*k[]	*	*k[]	*	*k[]	*	*k[]	*	*k[]	*
*M2/4	*	*M2/4	*	*M2/4	*	*M2/4	*	*M2/4	*
!!LO:REH:t=3
=39	=39	=39	=39	=39	=39	=39	=39	=39	=39
*^	*	*	*	*	*	*	*	*	*
!LO:TX:a:t=pizz.	!	!	!LO:TX:a:t=pizz.	!	!	!	!	!	!LO:TX:t=[[quarter]=96]	!
16CLL	16FFLL	p	16cLL	p	4.ryy	4ryy	2ryy	.	2ryy	.
16CJ	16FFJ	.	16cJ	.	.	.	.	.	.	.
8CJ	8FFJ	.	8cJ	.	.	.	.	.	.	.
8CL	8FFL	.	8cL	.	.	.	.	.	.	.
16CL	16FFL	.	16B-XL	.	8ryy	.	.	.	.	.
16CJJ	16FFJJ	.	16B-JJ	.	.	.	.	.	.	.
=40	=40	=40	=40	=40	=40	=40	=40	=40	=40	=40
8CL	8FFL	.	8B-XL	.	8ryy	.	2ryy	.	2ryy	.
8DnJ	8FFJ	.	8A-XJ	.	8ryy	.	.	.	.	.
16DLL	16FFLL	.	16A-LL	.	4ryy	.	.	.	.	.
16DJ	16FFJ	.	16A-J	.	.	.	.	.	.	.
8DJ	8FFJ	.	8A-J	.	.	.	.	.	.	.
=41	=41	=41	=41	=41	=41	=41	=41	=41	=41	=41
8DL	8FFL	<	8GL	<	8ryy	.	2ryy	.	2ryy	.
8DJ	8FFJ	.	8GJ	.	8ryy	4ryy	.	.	.	.
16EnLL	16FFLL	.	16e-XLL	.	8ryy	.	.	.	.	.
16EJ	16FFJ	.	16e-J	.	.	.	.	.	.	.
8EJ	8FFJ	[[	8e-J	[[	8ryy	4ryy	.	.	.	.
=42	=42	=42	=42	=42	=42	=42	=42	=42	=42	=42
8FL	8FFL	>	8dL	>	4.ryy	4ryy	2ryy	.	2ryy	.
16FL	16FFL	.	16dL	.	.	.	.	.	.	.
16FJJ	16FFJJ	.	16dJJ	.	.	.	.	.	.	.
8GL	8FFL	.	8dL	.	.	.	.	.	.	.
8GJ	8FFJ	.	8dJ	.	8ryy	.	.	.	.	.
=43	=43	=43	=43	=43	=43	=43	=43	=43	=43	=43
16AnLL	16FFLL	.	16d-XLL	.	8ryy	.	4ryy	.	4ryy	.
16AJ	16FFJ	.	16d-J	.	.	.	.	.	.	.
8AJ	8FFJ	.	8d-J	.	8ryy	.	.	.	.	.
8A	8FF	]	8c	]	8ryy	4ryy	8ryy	.	8ryy	.
*v	*v	*	*	*	*	*	*	*	*	*
8r	.	8r	.	8ryy	.	8ryy	4ryy	8ryy	4ryy
=44	=44	=44	=44	=44	=44	=44	=44	=44	=44
*^	*	*	*	*	*	*	*	*	*
!LO:TX:a:t=arco	!	!	!LO:TX:a:t=arco	!	!	!	!	!	!	!
*	*	*	*	*	*grp:A	*grp:A	*	*	*	*
16CLL	16FFLL	p	16cLL	p	16fLL	p	4.ryy	.	4.ryy	.
16CJ	16FFJ	.	16cJ	.	16fJ	.	.	.	.	.
8CJ	8FFJ	.	8cJ	.	8fJ	.	.	.	.	.
8CL	8FFL	.	8cL	.	8fL	.	.	.	.	.
16CL	16FFL	.	16B-XL	.	16e-XL	.	8ryy	.	8ryy	.
16CJJ	16FFJJ	.	16B-JJ	.	16e-JJ	.	.	.	.	.
=45	=45	=45	=45	=45	=45	=45	=45	=45	=45	=45
8CL	8FFL	.	8B-XL	.	8e-XL	.	8ryy	.	8ryy	.
8DnJ	8FFJ	.	8A-XJ	.	8d-XJ	.	8ryy	.	8ryy	.
16DLL	16FFLL	.	16A-LL	.	16d-LL	.	4ryy	.	4ryy	.
16DJ	16FFJ	.	16A-J	.	16d-J	.	.	.	.	.
8DJ	8FFJ	.	8A-J	.	8d-J	.	.	.	.	.
=46	=46	=46	=46	=46	=46	=46	=46	=46	=46	=46
8DL	8FFL	.	8GL	.	8cL	.	8ryy	.	8ryy	.
8DJ	8FFJ	<	8GJ	<	8cJ	<	8ryy	4ryy	8ryy	4ryy
16EnLL	16FFLL	.	16e-XLL	.	16gLL	.	8ryy	.	8ryy	.
16EJ	16FFJ	.	16e-J	.	16gJ	.	.	.	.	.
8EJ	8FFJ	[[	8e-J	[[	8gJ	[[	8ryy	4ryy	8ryy	4ryy
=47	=47	=47	=47	=47	=47	=47	=47	=47	=47	=47
8FL	8FFL	.	8dnL	.	8fL	.	4.ryy	4ryy	4.ryy	4ryy
16FL	16FFL	>	16dL	>	16fL	>	.	.	.	.
16FJJ	16FFJJ	.	16dJJ	.	16fJJ	.	.	.	.	.
8GL	8FFL	.	8B-XL	.	8e-XL	.	.	.	.	.
8GJ	8FFJ	]]	8B-J	]]	8e-J	]]	8ryy	4ryy	8ryy	4ryy
=48	=48	=48	=48	=48	=48	=48	=48	=48	=48	=48
16FLL	16FFLL	.	16AnLL	.	16d-XLL	.	8ryy	.	8ryy	.
16FJ	16FFJ	.	16AJ	.	16d-J	.	.	.	.	.
8FJ	8FFJ	.	8AJ	.	8cJ	.	8ryy	.	8ryy	.
*v	*v	*	*	*	*	*	*	*	*	*
4r	.	8r	.	8r	.	8ryy	.	8ryy	.
.	.	(8fi	p	(8ffi	p	8ryy	.	8ryy	.
=	=	=	=	=	=	=	=	=	=
*-	*-	*-	*-	*-	*-	*-	*-	*-	*-
!!!system-decoration: s1,s2[(s3,s4,s5)]
!!!RDF**kern: > = above
!!!RDF**kern: < = below
!!!EED: Claudio de Freitas
!!!EEV: 2021/09/02
!!!EED2: Daniel Wright
!!!EEV2: 2022/02/18
